!!!SOCIAL_FUNCTION:	cheyenne war song
!!!PDT:	1936
!!!OTL: No_11_Song_of_Victory.krn
!!!REG: Oklahoma and Montana
!!!LANG: Tone
!!!LING_GROUP: Algonquin
**kern	**kern
*staff2	*staff1
=1-	=1-
*clefF4	*clefF4
*k[b-e-a-]	*k[b-e-a-]
*M2/4	*M2/4
4GG/	4r
4GG/	8g\L
.	8f\J
=2	=2
4GG/	8e-\L
.	8e-\J
4GG/	4e-\
=3	=3
2r	8c\L
.	8c\J
.	8c\
.	8r
=4	=4
*M3/4	*M3/4
2.r	8e-\L
.	8c\J
.	8c\L
.	16e-\L
.	16e-\JJ
.	4e-\
=5	=5
*M2/4	*M2/4
2r	8c\L
.	8c\J
.	8c\
.	8r
=6	=6
2r	8e-\L
.	8f\J
.	8f\L
.	16f\L
.	16e-\JJ
=7	=7
2r	8c\L
.	16c\L
.	16c\JJ
.	4c\
=8	=8
2r	8G\L
.	8G\J
.	8G\L
.	8G\J
=9	=9
*M3/4	*M3/4
2.r	8c\L
.	8G\J
.	8G\L
.	16c\L
.	16c\JJ
.	4c\
=10	=10
*M2/4	*M2/4
2r	8G\L
.	8G\J
.	4c\
=11	=11
2r	8G\L
.	8G\J
.	8G\L
.	8G\J
=12	=12
2r	4G\
.	4r
=13	=13
*M3/4	*M3/4
2.r	8e-\L
.	8c\J
.	8c\L
.	16e-\L
.	16e-\JJ
.	4e-\
=14	=14
*M2/4	*M2/4
2r	8c\L
.	8c\J
.	8c\L
.	8c\J
=15	=15
2r	8e-\L
.	8f\J
.	8f\L
.	16f\L
.	16e-\JJ
=16	=16
2r	8c\L
.	16c\L
.	16c\JJ
.	4c\
=17	=17
2r	8G\L
.	8G\J
.	8G\L
.	8G\J
=18	=18
*M3/4	*M3/4
2.r	8c\L
.	8G\J
.	8G\L
.	16c\L
.	16c\JJ
.	4c\
=19	=19
*M2/4	*M2/4
2r	8G\L
.	8G\J
.	4c\
=20	=20
2r	8G\L
.	16G\L
.	16G\JJ
.	16G\LL
.	16F#\JJ
.	8r
==	==
*-	*-
